X: 1
T:A Fig for a Kiss
M:9/8
L:1/8
Q:80
C:arr. Kent Hiestand
S:Jig
K:HP
{g}d2f{g}B2f{gfg}fed|
{g}c2e{g}A2e{g}edc|
{g}d2f{g}B2f{gfg}fed|  !
{g}faf{g}edc{gBd}B3:|
{gf}g2e{gf}g2e{A}edB|
{gfg}f2d{c}dcd{g}fed|  !
{gf}g2e{gf}g2e{A}edB|
{g}dBG{d}GBd{g}e2f|
{gf}g2e{gf}g2e{A}edB|  !
{gfg}f2d{c}dcd{g}fed|
{a}gfe{g}fed{g}edB|
{g}faf{g}edc{gBd}B3|]  !
